X:1
T:[ID 1-109a]
T:[ID 1-109a]
T:Bezeichnung standardisiert: Tanz mit mir; Allegro In dieser Quelle auch als: Courant In dieser Quelle auch als: Boure In dieser Quelle auch als: Boure Dantz mit mir In dieser Quelle auch als: Tantz mit mir
T:Urheber unbekannt Erstbeleg: 1773 (Datum in der schriftlichen Quelle) Datum in der hier transkribierten schriftlichen Quelle: 1799
C:Urheber unbekannt
C:Erstbeleg: 1773 (Datum in der schriftlichen Quelle)
C:Datum in der hier transkribierten schriftlichen Quelle: 1799
%%score 1 2
L:1/8
M:2/4
K:D
V:1 treble nm="Primo"
V:2 treble nm="Secondo"
V:1
 df fe/d/ | eg gf/e/ | fa ag/f/ | e/d/c/B/ A/B/c/A/ | df fe/d/ | eg gf/e/ | fe/d/ c/d/e/c/ | %7
 d2 D2 :: fa ag/f/ | ga b2 | eg gf/e/ | fg a2 | df fe/d/ | eg gf/e/ | fe/d/ c/d/e/c/ | d2 D2 :| %16
V:2
 !fermata!Fd dc/B/ | Ae ed/c/ | df fe/d/ | A2 A/B/A/G/ | Fd dA/F/ | Ae ed/A/ | G/F/G/E/ AG | F4 :: %8
 df fe/d/ | ef g2 | Ae ed/A/ | de f2 | Fd dA/F/ | Ae ed/A/ | G/F/G/E/ AG | F4 :| %16

